common/resources/fonts/svg/list2.svg

<?xml version="1.0" encoding="UTF-8" standalone="no"?>
<svg width="1024px" height="1024px" viewBox="0 0 1024 1024" version="1.1" xmlns="http://www.w3.org/2000/svg" xmlns:xlink="http://www.w3.org/1999/xlink">
    <!-- Generator: Sketch 3.7.1 (28215) - http://www.bohemiancoding.com/sketch -->
    <title>list2</title>
    <desc>Created with Sketch.</desc>
    <defs></defs>
    <g id="Page-1" stroke="none" stroke-width="1" fill="none" fill-rule="evenodd">
        <g id="list2" fill="#000000">
            <path d="M400.625,120.9375 L960,120.9375 L960,232.8125 L400.625,232.8125 L400.625,120.9375 L400.625,120.9375 Z M400.625,456.5625 L960,456.5625 L960,568.4375 L400.625,568.4375 L400.625,456.5625 L400.625,456.5625 Z M400.625,792.1875 L960,792.1875 L960,904.0625 L400.625,904.0625 L400.625,792.1875 L400.625,792.1875 Z M65,176.875 C65,115.088535 115.088535,65 176.875,65 C238.661465,65 288.75,115.088535 288.75,176.875 C288.75,238.661465 238.661465,288.75 176.875,288.75 C115.088535,288.75 65,238.661465 65,176.875 L65,176.875 Z M65,512.5 C65,450.713535 115.088535,400.625 176.875,400.625 C238.661465,400.625 288.75,450.713535 288.75,512.5 C288.75,574.286465 238.661465,624.375 176.875,624.375 C115.088535,624.375 65,574.286465 65,512.5 L65,512.5 Z M65,848.125 C65,786.338535 115.088535,736.25 176.875,736.25 C238.661465,736.25 288.75,786.338535 288.75,848.125 C288.75,909.911465 238.661465,960 176.875,960 C115.088535,960 65,909.911465 65,848.125 L65,848.125 Z" id="Shape"></path>
        </g>
    </g>
</svg>

<svg width="1024" height="1024" viewBox="0 0 1024 1024">
    <path d="M400.625 120.938H960v111.874H400.625V120.938zm0 335.625H960v111.875H400.625V456.563zm0 335.625H960v111.875H400.625V792.188zM65 176.875C65 115.089 115.089 65 176.875 65S288.75 115.089 288.75 176.875 238.661 288.75 176.875 288.75 65 238.661 65 176.875zM65 512.5c0-61.786 50.089-111.875 111.875-111.875S288.75 450.714 288.75 512.5s-50.089 111.875-111.875 111.875S65 574.286 65 512.5zm0 335.625c0-61.786 50.089-111.875 111.875-111.875S288.75 786.339 288.75 848.125 238.661 960 176.875 960 65 909.911 65 848.125z" fill-rule="evenodd"/>
</svg>
